X: 87
T: Stitcher's Birthday, The
L:1/4
M:2/2
C:Tom Siess
Z:to celebrate the 60th birthday of Anne Siess, 1994
Z:Alf Warnock - alf.warnock@rogers.com
K:G
P:A
D2|"G"G3A|B2AG|"D"F>E FG|A3D|"G"G3A|
B2AG|"D"A4-|A2D2|"G"G2AB|"C"E3D|"G"G2AB|
"C"c2Bc|"G"d2BG|"D7"A2GF|"G"G4-|G2||
P:B
G2|"D"F2AF|D2EF|"G"G2AB|"C"E3D|"G"G2AB|
"C"c2B2|"D"A4-|A2A2|"G"d2BG|"C"E2E|"G"D2GB|
"C"c2Bc|"G"d2BG|"D7"A2GF|"G"G4-|G2|]

